!!!OTL: 759. Trennungsstunde.
!!!ARE: Europa, Mitteleuropa, Deutschland, Thueringen
!!!SCT: E0759
!!!TXL: @@DE
!!!YEM: Copyright 1995, estate of Helmut Schaffrath.
**kern	**text
*ICvox	*
*M4/4	*
*met(c)	*
*k[b-e-]	*
*B-:	*
!LO:TX:a:t=Ziemlich bewegt.	!
!LO:TX:a:t=Mel. um 1830 bekannt.	!
{4f	So
=1	=1
4.dd	ſchlägt
8cc	die
8b-	bit-
8a	-tre
8g	Trennungs-
8f	.
=2	=2
8.fL	-ſtun-
16e-J	.
4d	-de
8r}	.
{8b-	und
8b-	reißt
8a	ge-
=3	=3
4g	-walt-
4g	-ſam
4cc	mich
4cc	von
=4	=4
2dd	dir;
4r}	.
{4dd	ſie
=5	=5
4.dd	ſchlägt
8a	ʒu
8b-	früh
8b-	dem
8dd	neu-
8b-	-en
=6	=6
4a	Bun-
4g	-de,
8r}	.
{8g	denn
8ee-	ach!
8cc	ich
=7	=7
4ff	fand
8.ddL	mein
16b-J	.
4f	Glück
8gL	in
8aJ	.
=8	=8
2b-	dir,
8r}	.
{8e-	denn
8e-	ach!
8e-	ich
=9	=9
4d	fand
4r	.
8r	.
8c	mein
8c	Glück
8e-	in
=10	=10
2.d;}	dir.
==	==
!!!AGN: Abschieds - Lied, Liebe
!!!ONB: ESAC (Essen Associative Code) Database: ERK2
!!!AMT: simple quadruple
!!!AIN: vox
!!!EED: Helmut Schaffrath
!!!EEV: 1.0
!!!GTL: Abschieds- und Wanderlieder
!!!URL-scan: https://rosdok.uni-rostock.de/mcrviewer/recordIdentifier/rosdok_ppn745177662/iview2/phys_0569.iview2?x=193.8995864193107&y=268.62775212479755&scale=0.7029437510502773&rotation=0&layout=singlePageLayout
!!!ENC: Anna Maria Matuszewska
!!!EEV: 2024/12/16
*-	*-
